X: 266
T: Loch Gamhna
R: hornpipe
M: 4/4
L: 1/8
K: Ador
|: cB | AGAB AGEG | AGAB cBcd | (3efg fa gedc | B2 G2 G2 cB |
AGAB AGEG | AGAB cBcd | (3efg fa gedB | c2 A2 A2 :|
|: (3efg | a2 ab ageg | agab a2 ge | dega gedc |
|1 B2 G2 G2 (3efg | a2 ab ageg | agab a2 ge | dega gedB | c2 A2 A2
:|2 B2 G2 G2 cB | AGAB AGEG | AGAB cBcd | (3efg fa gedB | c2 A2 A4 |]
F: https://thesession.org/tunes/1927#setting24981

